symbols/web/phone_disabled/materialsymbolsrounded/phone_disabled_wght200gradN25_20px.svg

<svg xmlns="http://www.w3.org/2000/svg" height="20" width="20"><path d="M14.688 8.083q.395-.916.635-1.802.239-.885.26-1.739 0-.084-.062-.157-.063-.073-.167-.073H13.75q-.125 0-.198.073-.073.073-.114.198l-.376 1.709q-.041.083-.01.187t.115.188Zm-10.167 7.5q.687-.062 1.604-.218.917-.157 1.75-.532L6.354 13.25q-.083-.083-.156-.115-.073-.031-.156.011l-1.48.292q-.124.041-.197.124-.073.084-.073.209v1.583q0 .104.073.167.073.062.156.062Zm9.062-4.208-.604-.604q.354-.438.667-.886.312-.447.646-1.01l-1.75-1.646q-.23-.208-.292-.5-.062-.291-.021-.667l.417-1.812q.062-.354.302-.552.24-.198.614-.198h2q.334 0 .615.24.281.239.281.593 0 1.875-.812 3.771-.813 1.896-2.063 3.271Zm-9.25 5.063q-.271 0-.573-.282-.302-.281-.302-.614v-1.959q0-.354.209-.614.208-.261.541-.323l1.667-.334q.354-.062.625.021.271.084.521.334l1.646 1.75q.625-.334 1.291-.823.667-.49 1.292-1.011L2.833 4.188q-.125-.146-.135-.313-.01-.167.135-.313.146-.145.302-.145.157 0 .323.166l13.146 13.146q.125.125.136.302.01.177-.157.323-.145.146-.291.136-.146-.011-.292-.157l-4.167-4.145q-1.812 1.583-3.708 2.416-1.896.834-3.792.834Zm10.355-8.355Zm-6.813 6.75Z"/></svg>

<svg xmlns="http://www.w3.org/2000/svg" height="20" width="20"><path d="M14.688 8.083Q15.083 7.167 15.323 6.281Q15.562 5.396 15.583 4.542Q15.583 4.458 15.521 4.385Q15.458 4.312 15.354 4.312H13.75Q13.625 4.312 13.552 4.385Q13.479 4.458 13.438 4.583L13.062 6.292Q13.021 6.375 13.052 6.479Q13.083 6.583 13.167 6.667ZM4.521 15.583Q5.208 15.521 6.125 15.365Q7.042 15.208 7.875 14.833L6.354 13.25Q6.271 13.167 6.198 13.135Q6.125 13.104 6.042 13.146L4.562 13.438Q4.438 13.479 4.365 13.562Q4.292 13.646 4.292 13.771V15.354Q4.292 15.458 4.365 15.521Q4.438 15.583 4.521 15.583ZM13.583 11.375 12.979 10.771Q13.333 10.333 13.646 9.885Q13.958 9.438 14.292 8.875L12.542 7.229Q12.312 7.021 12.25 6.729Q12.188 6.438 12.229 6.062L12.646 4.25Q12.708 3.896 12.948 3.698Q13.188 3.5 13.562 3.5H15.562Q15.896 3.5 16.177 3.74Q16.458 3.979 16.458 4.333Q16.458 6.208 15.646 8.104Q14.833 10 13.583 11.375ZM4.333 16.438Q4.062 16.438 3.76 16.156Q3.458 15.875 3.458 15.542V13.583Q3.458 13.229 3.667 12.969Q3.875 12.708 4.208 12.646L5.875 12.312Q6.229 12.25 6.5 12.333Q6.771 12.417 7.021 12.667L8.667 14.417Q9.292 14.083 9.958 13.594Q10.625 13.104 11.25 12.583L2.833 4.188Q2.708 4.042 2.698 3.875Q2.688 3.708 2.833 3.562Q2.979 3.417 3.135 3.417Q3.292 3.417 3.458 3.583L16.604 16.729Q16.729 16.854 16.74 17.031Q16.75 17.208 16.583 17.354Q16.438 17.5 16.292 17.49Q16.146 17.479 16 17.333L11.833 13.188Q10.021 14.771 8.125 15.604Q6.229 16.438 4.333 16.438ZM14.688 8.083Q14.688 8.083 14.688 8.083Q14.688 8.083 14.688 8.083Q14.688 8.083 14.688 8.083Q14.688 8.083 14.688 8.083Q14.688 8.083 14.688 8.083Q14.688 8.083 14.688 8.083Q14.688 8.083 14.688 8.083Q14.688 8.083 14.688 8.083ZM7.875 14.833Q7.875 14.833 7.875 14.833Q7.875 14.833 7.875 14.833Q7.875 14.833 7.875 14.833Q7.875 14.833 7.875 14.833Q7.875 14.833 7.875 14.833Q7.875 14.833 7.875 14.833Q7.875 14.833 7.875 14.833Q7.875 14.833 7.875 14.833Z"/></svg>
